X: 1723
T: Aoibhínn Crónán
R: waltz
M: 3/4
K: Dmajor
A8|B2 d6|e2 B6|B2 A6|
g4 e g3|f6 e2|d6 e2|B6 B2|A8|
B4 =cc5 G2 B4|B2 AA5|G2 A6|
ABc d2 d3|F2 A2 A4|G2 E2 D4|E2 D6|

